X:107
T:The Golden Gardens
C:Randal Bays
M:9/8
L:1/8
R:Slip Jig
K:Emin
A |: B3 EFG FGA | E3 cBc (cd)c | BGE EFG AGF | GFE FED E3 |
BGE EFG AGF | E3 cBc (cd)c | BGE EFG AGF | GFE FED E3 |
cBc (cd)c BGE | cBc d2c B3 | cBc (cd)c BGE | GFE FED E3 |
cBc (cd)c BGE | cBc d2c Bef | geg fdf ece | d2B ABG FGA |
B3 BAB d2B | c3 cBc e2c | B3 BAB d2B | cAF DEF G2A |
BAB BAB d2B | cBc cBc e2c | B3 BAB d2B | cAF DEF Gdc :|

